X: 37161
T: Sir Archibald Dunbar
R: strathspey
M: 4/4
K: Dmixolydian
|D2F>D G>EC>E|D/D/D/D/ F>D A>DF>D|
A<DF>D G>EC>E|D>d A>F D2(3AB^c|
d>AF<A G>EC>E|D/D/D/D/ F>D A>DF>D|
A<DF>D G>EC>E|D>dA>F D2D<A|
d2f>d g>ec>e|d/d/d/d/ f>d a>df>d|
e>de>f g>a(3gfe|d<BA>F F<AA<B|
d2f>d g>e^c>A|d/d/d/d/ f>d a>df>d|
e>de>f g>a(3gfe|d<BA>F F<A(3AB^c|

